qucs/bitmaps/svg/rebuild.svg

<svg xmlns="http://www.w3.org/2000/svg" xmlns:xlink="http://www.w3.org/1999/xlink" width="128" height="128"><linearGradient id="e" x1="-333.029" x2="-333.029" y1="-1473.65" y2="-776.614" gradientTransform="matrix(.12146 0 0 .17566 195.189 503.66)" gradientUnits="userSpaceOnUse"><stop offset="0" style="stop-color:#fff"/><stop offset=".491" style="stop-color:#fff"/><stop offset="1" style="stop-color:#dcdcdc"/></linearGradient><linearGradient id="c" x1="399.775" x2="399.775" y1="727.079" y2="480.602" gradientTransform="matrix(.12146 0 0 .17566 75.746 148.346)" gradientUnits="userSpaceOnUse"><stop offset="0" style="stop-color:#cbcbcd"/><stop offset=".5" style="stop-color:#e0e0e2"/><stop offset="1" style="stop-color:#f2f2f2"/></linearGradient><linearGradient id="d" x1="1055.3" x2="1055.3" y1="-468.669" y2="-481.767" gradientUnits="userSpaceOnUse"><stop offset="0" style="stop-color:#6f6f6f"/><stop offset="1" style="stop-color:#fff"/></linearGradient><filter id="b" width="1.046" height="1.051" x="-.023" y="-.025"><feGaussianBlur stdDeviation="1.178"/></filter><linearGradient id="a" gradientUnits="userSpaceOnUse"><stop offset="0" style="stop-color:#0081ec"/><stop offset="1" style="stop-color:#0057ae"/></linearGradient><radialGradient xlink:href="#a" id="g" cx="95.862" cy="100.268" r="7.368" gradientTransform="matrix(3.60232 0 0 2.6137 -263.852 -199.552)"/><radialGradient xlink:href="#a" id="h" cx="95.862" cy="100.268" r="7.368" gradientTransform="matrix(-3.4919 0 0 -2.70572 384.092 362.881)"/><g transform="translate(-79.629 -236.876)"><rect width="124" height="111.6" x="81.629" y="239.276" rx="2.143" ry="2.53" style="opacity:.4;filter:url(#b)" transform="matrix(1 0 0 1.00358 0 2.742)"/><path d="M124-57.653v-2.836zm-134.967 7.63v-2.836zm-159.344-70.671v-2.836zm-121.28-87.919v-2.836zm250.259 66.733v-2.836zm-94.002 74.993v-1.549zM-390.625-226.57v-2.837zm522.172 335.668v-2.836zM-27.797 38.427v-2.836zm-121.28-87.919v-2.836zm250.26 66.734v-2.837zM7.18 92.235v-1.55zM-248.11-67.45v-2.836zM81.31 56.325v-2.837zM-78.034-14.346v-2.837zm-121.28-87.919v-2.837zm250.26 66.733v-2.836zm-94.002 74.993v-1.55zm-255.291-159.684v-2.837zM-311.7 181.916v-2.837zm-159.345-70.671v-2.837zm-121.279-87.919v-2.837zm250.259 66.733v-2.836zm-94.002 74.993v-1.55zM-691.358 5.368V2.53zm635.804 355.564v-2.837zm-159.344-70.672v-2.836zm-121.28-87.918v-2.837zm250.26 66.733v-2.836zm-94.002 74.993v-1.55zm-255.291-159.684v-2.837zm277.511-60.49v-2.837zm-159.345-70.672v-2.836zm-121.28-87.918v-2.837zm250.26 66.733v-2.836zm-94.002 74.993v-1.55zM-537.358-52.654v-2.837z" style="fill:#fff;fill-opacity:.756881"/><rect width="120" height="108" x="83.629" y="244.876" rx="2.074" ry="2.449" style="fill:url(#c)"/><path d="M-155.663 122.955v-2.836zm-159.344-70.671v-2.836zm-121.28-87.919v-2.836zm250.26 66.733v-2.836zm-94.003 74.993v-1.55zM-535.32-53.593v-2.836z" style="fill:#fff;fill-opacity:.756881"/><path id="f" d="M1060.36-478.605a5.06 5.06 0 1 1-10.12 0 5.06 5.06 0 1 1 10.12 0" style="fill:url(#d)" transform="translate(-1057.644 826.36)scale(1.1857)"/><path d="M148.215 68.932v-2.836zm-134.968 7.63v-2.837zM-146.097 5.89V3.055zm-121.279-87.918v-2.837zM-17.117-15.295v-2.836zm-94.003 74.993v-1.55zM-366.41-99.986v-2.837zm522.172 335.669v-2.837zM-3.582 165.012v-2.837zm-121.28-87.919v-2.837zm250.259 66.733v-2.836zM31.395 218.82v-1.55zM-223.896 59.135v-2.836z" style="fill:#fff;fill-opacity:.756881"/><path d="M85.691 244.876c-1.149 0-2.062 1.081-2.062 2.438v103.125c0 1.356.913 2.437 2.062 2.437h115.875c1.15 0 2.063-1.08 2.063-2.437V247.314c0-1.357-.914-2.438-2.063-2.438zm1.406 3.656H200.16c1.092 0 1.969 1.024 1.969 2.297v98.25c0 1.273-.877 2.297-1.97 2.297H87.098c-1.091 0-1.968-1.024-1.968-2.297v-98.25c0-1.273.877-2.297 1.968-2.297z" style="fill:url(#e)"/><g style="fill:#fff"><path d="M-221.047-183.306v-3.85zm-183.229 10.358v-3.85zm-216.321-95.942v-3.85zm-164.647-119.356v-3.85zm339.746 90.596v-3.85zm-127.615 101.808v-2.103zM-919.69-412.625v-3.85zm708.888 455.696v-3.85zM-427.124-52.87v-3.85zM-591.77-172.227v-3.85zm339.746 90.596v-3.85zM-379.64 20.177v-2.103zm-346.576-216.783v-3.85zm447.214 168.033v-3.85zm-216.321-95.941v-3.85zM-659.97-243.871v-3.85zm339.747 90.596v-3.85zM-447.839-51.467v-2.103zM-794.416-268.25v-3.85zm-18.128 410.176v-3.85zm-216.322-95.941v-3.85zm-164.646-119.357v-3.85zm339.746 90.596v-3.85zm-127.615 101.809v-2.104zm-346.577-216.784v-3.85zm863.153 482.705v-3.85zm-216.322-95.941v-3.85zm-164.647-119.357v-3.85zm339.747 90.596v-3.85zM-633.642 362.06v-2.103zM-980.22 145.277v-3.85zm376.743-82.12v-3.85zm-216.322-95.941v-3.851zm-164.647-119.357v-3.85zm339.747 90.596v-3.85zM-772.314 40.263V38.16zm-346.577-216.783v-3.851zm518.179 238.403v-3.85zm-216.321-95.942v-3.85zM-981.68-153.415v-3.85zm339.747 90.595v-3.85zM-769.549 38.99v-2.104zm-346.577-216.785v-3.85zm927.953 166.337v-12.57 8.72zM-371.402-1.1v-3.85zm-216.322-95.941v-3.85zM-752.37-216.398v-3.85zm339.746 90.596v-3.85zM-540.24-23.993v-2.104zm-346.576-216.784v-3.85zm708.887 455.697v-3.851zm-216.321-95.942v-3.85zM-558.897-.379v-3.85zm339.747 90.596v-3.85zm-127.616 101.809v-2.104zM-693.343-24.758v-3.85z" style="fill-opacity:.756881"/><path d="M83.629 276.876h120v76h-120z"/></g><use xlink:href="#f" width="96" height="96" transform="translate(-16)"/><use xlink:href="#f" width="96" height="96" transform="translate(-32)"/><use xlink:href="#f" width="96" height="96" transform="translate(-96)"/></g><path d="M63.465 74.4 38 57.893l25.465-16.507v11.005c29.709 1.834 27.587 27.511 27.587 27.511s-2.034-16.507-27.587-16.507z" style="stroke-width:3.34899;fill:url(#g)"/><path d="m66.807 79.285 24.685 17.088-24.685 17.088V102.07c-28.798-1.898-26.741-28.48-26.741-28.48s1.971 17.088 26.741 17.088z" style="stroke-width:3.354802;fill:url(#h)"/></svg>

<svg xmlns="http://www.w3.org/2000/svg" xmlns:xlink="http://www.w3.org/1999/xlink" width="128" height="128"><linearGradient id="e" x1="-333.029" x2="-333.029" y1="-1473.65" y2="-776.614" gradientTransform="matrix(.12146 0 0 .17566 195.189 503.66)" gradientUnits="userSpaceOnUse"><stop offset="0" style="stop-color:#fff"/><stop offset=".491" style="stop-color:#fff"/><stop offset="1" style="stop-color:#dcdcdc"/></linearGradient><linearGradient id="c" x1="399.775" x2="399.775" y1="727.079" y2="480.602" gradientTransform="matrix(.12146 0 0 .17566 75.746 148.346)" gradientUnits="userSpaceOnUse"><stop offset="0" style="stop-color:#cbcbcd"/><stop offset=".5" style="stop-color:#e0e0e2"/><stop offset="1" style="stop-color:#f2f2f2"/></linearGradient><linearGradient id="d" x1="1055.3" x2="1055.3" y1="-468.669" y2="-481.767" gradientUnits="userSpaceOnUse"><stop offset="0" style="stop-color:#6f6f6f"/><stop offset="1" style="stop-color:#fff"/></linearGradient><filter id="b"><feGaussianBlur stdDeviation="1.178"/></filter><linearGradient id="a" gradientUnits="userSpaceOnUse"><stop offset="0" style="stop-color:#0081ec"/><stop offset="1" style="stop-color:#0057ae"/></linearGradient><radialGradient xlink:href="#a" id="g" cx="95.862" cy="100.268" r="7.368" gradientTransform="matrix(3.60232 0 0 2.6137 -263.852 -199.552)"/><radialGradient xlink:href="#a" id="h" cx="95.862" cy="100.268" r="7.368" gradientTransform="matrix(-3.4919 0 0 -2.70572 384.092 362.881)"/><g transform="translate(-79.629 -236.876)"><rect width="124" height="111.6" x="81.629" y="239.276" rx="2.143" ry="2.53" style="opacity:.4;filter:url(#b)" transform="matrix(1 0 0 1.00358 0 2.742)"/><path d="M124-57.653v-2.836zM-10.967-50.023v-2.836zM-170.311-120.694v-2.836zM-291.591-208.613v-2.836zM-41.332-141.88v-2.836zM-135.334-66.887v-1.549zM-390.625-226.57v-2.837zM131.547 109.098v-2.836zM-27.797 38.427v-2.836zM-149.077-49.492v-2.836zM101.183 17.242v-2.837zM7.18 92.235v-1.55zM-248.11-67.45v-2.836zM81.31 56.325v-2.837zM-78.034-14.346v-2.837zM-199.314-102.265v-2.837zM50.946-35.532v-2.836zM-43.056 39.461v-1.55zM-298.347-120.223v-2.837zM-311.7 181.916v-2.837zM-471.045 111.245v-2.837zM-592.324 23.326v-2.837zM-342.065 90.059v-2.836zM-436.067 165.052v-1.55zM-691.358 5.368V2.53zM-55.554 360.932v-2.837zM-214.898 290.26v-2.836zM-336.178 202.342v-2.837zM-85.918 269.075v-2.836zM-179.92 344.068v-1.55zM-435.211 184.384v-2.837zM-157.7 123.894v-2.837zM-317.045 53.222v-2.836zM-438.325-34.696v-2.837zM-188.065 32.037v-2.836zM-282.067 107.03v-1.55zM-537.358-52.654v-2.837z" style="fill:#fff;fill-opacity:.756881"/><rect width="120" height="108" x="83.629" y="244.876" rx="2.074" ry="2.449" style="fill:url(#c)"/><path d="M-155.663 122.955v-2.836zM-315.007 52.284v-2.836zM-436.287-35.635v-2.836zM-186.027 31.098v-2.836zM-280.03 106.091v-1.55zM-535.32-53.593v-2.836z" style="fill:#fff;fill-opacity:.756881"/><g><path id="f" d="M1060.36-478.605a5.06 5.06 0 1 1-10.12 0 5.06 5.06 0 1 1 10.12 0z" style="fill:url(#d)" transform="matrix(1.1857 0 0 1.1857 -1057.644 826.36)"/></g><g style="fill:#fff;fill-opacity:.756881"><path d="M148.215 68.932v-2.836zM13.247 76.562v-2.837zM-146.097 5.89V3.055zM-267.376-82.028v-2.837z"/></g><path d="M-17.117-15.295v-2.836zM-111.12 59.698v-1.55zM-366.41-99.986v-2.837zM155.762 235.683v-2.837zM-3.582 165.012v-2.837zM-124.862 77.093v-2.837zM125.397 143.826v-2.836zM31.395 218.82v-1.55zM-223.896 59.135v-2.836z" style="fill:#fff;fill-opacity:.756881"/><path d="M85.691 244.876c-1.149 0-2.062 1.081-2.062 2.438v103.125c0 1.356.913 2.437 2.062 2.437h115.875c1.15 0 2.063-1.08 2.063-2.437V247.314c0-1.357-.914-2.438-2.063-2.438zm1.406 3.656H200.16c1.092 0 1.969 1.024 1.969 2.297v98.25c0 1.273-.877 2.297-1.97 2.297H87.098c-1.091 0-1.968-1.024-1.968-2.297v-98.25c0-1.273.877-2.297 1.968-2.297z" style="fill:url(#e)"/><g style="fill:#fff"><path d="M-221.047-183.306v-3.85zM-404.276-172.948v-3.85zM-620.597-268.89v-3.85zM-785.244-388.246v-3.85zM-445.498-297.65v-3.85zM-573.113-195.842v-2.103zM-919.69-412.625v-3.85zM-210.802 43.071v-3.85zM-427.124-52.87v-3.85zM-591.77-172.227v-3.85zM-252.024-81.631v-3.85zM-379.64 20.177v-2.103zM-726.216-196.606v-3.85zM-279.002-28.573v-3.85zM-495.323-124.514v-3.85zM-659.97-243.871v-3.85zM-320.223-153.275v-3.85zM-447.839-51.467v-2.103zM-794.416-268.25v-3.85zM-812.544 141.926v-3.85zM-1028.866 45.985v-3.85zM-1193.512-73.372v-3.85zM-853.766 17.224v-3.85zM-981.381 119.033v-2.104zM-1327.958-97.751v-3.85zM-464.805 384.954v-3.85zM-681.127 289.013v-3.85zM-845.774 169.656v-3.85zM-506.027 260.252v-3.85zM-633.642 362.06v-2.103zM-980.22 145.277v-3.85zM-603.477 63.157v-3.85zM-819.799-32.784v-3.851zM-984.446-152.141v-3.85zM-644.699-61.545v-3.85zM-772.314 40.263V38.16zM-1118.891-176.52v-3.851zM-600.712 61.883v-3.85zM-817.033-34.059v-3.85zM-981.68-153.415v-3.85zM-641.933-62.82v-3.85zM-769.549 38.99v-2.104zM-1116.126-177.795v-3.85zM-188.173-11.458v-12.57 8.72zM-371.402-1.1v-3.85zM-587.724-97.041v-3.85zM-752.37-216.398v-3.85zM-412.624-125.802v-3.85zM-540.24-23.993v-2.104zM-886.816-240.777v-3.85zM-177.929 214.92v-3.851zM-394.25 118.978v-3.85zM-558.897-.379v-3.85zM-219.15 90.217v-3.85zM-346.766 192.026v-2.104zM-693.343-24.758v-3.85z" style="fill-opacity:.756881"/><path d="M83.629 276.876h120v76h-120z"/></g><use xlink:href="#f" width="96" height="96" transform="translate(-16)"/><use xlink:href="#f" width="96" height="96" transform="translate(-32)"/><use xlink:href="#f" width="96" height="96" transform="translate(-96)"/></g><path d="M63.465 74.4 38 57.893l25.465-16.507v11.005c29.709 1.834 27.587 27.511 27.587 27.511s-2.034-16.507-27.587-16.507z" style="stroke-width:3.34899;fill:url(#g)"/><path d="m66.807 79.285 24.685 17.088-24.685 17.088V102.07c-28.798-1.898-26.741-28.48-26.741-28.48s1.971 17.088 26.741 17.088z" style="stroke-width:3.354802;fill:url(#h)"/></svg>
